X:229
T:Ballena Polka. Le4.229
L:1/16
B:L.Leadley MS#4 c1850
Z:vmp.Mike Hicken 2016 www.village-music-project.org.uk
N: I am not sure about the title.
N: The key signature is shown as 3 sharps but Gs are shown with accidentals throughout.
N: The first line has what look like an 8va sign above it.
Q:1/4=90
M:2/4
K:D
(FG)|A^GAF d3c|c2B2 BAB2|GFGE c3B|B2A2 A^GA2|A^GAF d2c2|c2B2 BAB2|edcB A_B=BC|D2D2D2 ||
cd|{^d/}e2{B/}c2{^G/}A2{^D/}E2|C2EA c4|cd^B^G =ffdB|BcAF E2cd|{d/}e2{B/}c2{G/}A2{D/}E2|C2EA c4|cdB^G f3^G|A2A2A2||
(3A^GA|f2d2A2 Ad|c2B2G2 Gc|B2A2 e2ef|e2d2A2 (3A^GA|f2d2A2 Ad|c2B2 G2 Gc|B2A2 f3e|d2d2d2||d2|dBf2 a3g|
f2c2 f3e|(dF)(Fe) (ed)(dc)|BGBe dABc|d2f2 a3g|f2c2 f3e|d2F2 B3A|!/!G6"_Fines"|]

